src/sponsor_logos/ansys.svg

<svg xmlns="http://www.w3.org/2000/svg" xml:space="preserve" style="fill-rule:evenodd;clip-rule:evenodd;stroke-linejoin:round;stroke-miterlimit:2" viewBox="0 0 456 142"><path d="M436.535 125.008 263.339 549.921h116.504l172.913-424.913z" style="fill:#ffb71b;fill-rule:nonzero" transform="translate(-69.785 -33.127)scale(.265)"/><path d="m521.575 281.48 110.551 268.441H756.85L581.102 138.614z" style="fill-rule:nonzero" transform="translate(-69.785 -33.127)scale(.265)"/><path d="M155.906 530.079q-8.292.001-14.882 3.345c-4.422 2.228-7.994 5.47-10.744 9.722v-11.14h-23.414v78.237h24.066v-43.937q.001-7.952 4.536-12.756c3.033-3.175 7.03-4.791 12.019-4.791 4.138 0 7.2 1.222 9.156 3.657q2.947 3.67 2.948 11.622v45.921h24.066v-47.055c0-11.055-2.288-19.304-6.86-24.775-4.564-5.471-11.537-8.192-20.891-8.192zM241.228 564.094l-13.209-3.033c-3.175-.847-5.414-1.746-6.69-2.707-1.267-.961-1.905-2.287-1.905-3.968q0-3.5 3.175-5.414c2.118-1.276 5.046-1.914 8.759-1.914 8.079 0 16.243 2.863 24.548 8.589l6.378-15.93c-4.252-3.09-9.042-5.471-14.343-7.172a53.6 53.6 0 0 0-16.413-2.551c-6.605 0-12.444 1.066-17.603 3.175-5.159 2.123-9.128 5.045-11.934 8.759-2.82 3.713-4.223 8.022-4.223 12.897 0 6.151 1.785 11.027 5.329 14.57 3.543 3.572 9.099 6.18 16.667 7.881l12.756 2.863c3.94.847 6.605 1.808 8.051 2.863 1.431 1.065 2.151 2.551 2.151 4.45 0 2.129-1.034 3.798-3.118 5.017q-3.104 1.832-8.674 1.831c-5.216 0-10.346-.793-15.449-2.383q-7.653-2.397-14.031-6.69l-6.378 16.554c4.337 3.09 9.524 5.443 15.534 7.087 6.009 1.641 12.614 2.466 19.842 2.466 10.517 0 18.766-2.152 24.775-6.463q9.014-6.463 9.014-17.773.001-9.398-5.499-14.882c-3.685-3.685-9.496-6.407-17.461-8.221zM419.528 572.598c-3.657-3.656-9.468-6.406-17.434-8.192l-13.237-3.033c-3.175-.847-5.414-1.746-6.69-2.707s-1.913-2.287-1.913-3.968c0-2.333 1.065-4.139 3.174-5.415s5.046-1.913 8.759-1.913c8.079 0 16.243 2.863 24.548 8.589l6.378-15.931c-4.252-3.089-9.042-5.471-14.343-7.171a53.6 53.6 0 0 0-16.413-2.551c-6.576 0-12.444 1.065-17.603 3.174-5.159 2.123-9.156 5.046-11.962 8.759-2.812 3.714-4.223 8.022-4.223 12.898 0 6.151 1.777 11.027 5.329 14.57 3.543 3.572 9.099 6.18 16.639 7.88l12.756 2.863c3.94.848 6.605 1.809 8.05 2.863 1.44 1.066 2.152 2.552 2.152 4.451 0 2.129-1.035 3.798-3.118 5.017q-3.105 1.832-8.674 1.831c-5.216 0-10.347-.793-15.449-2.384q-7.654-2.396-14.032-6.689l-6.378 16.554c4.366 3.09 9.525 5.442 15.534 7.087 6.01 1.641 12.614 2.466 19.843 2.466 10.516 0 18.765-2.152 24.775-6.463q9.014-6.463 9.014-17.774c-.014-6.264-1.846-11.225-5.499-14.91z" style="fill-rule:nonzero" transform="translate(29.995 -498.01)"/><path d="M1462.68 657.638h87.87l164.41-402.52h-87.87l-70.87 172.913-70.87-172.913h-87.87l113.39 280.63z" style="fill-rule:nonzero" transform="translate(-69.785 -33.127)scale(.265)"/></svg>

<?xml version="1.0" encoding="UTF-8" standalone="no"?>
<!DOCTYPE svg PUBLIC "-//W3C//DTD SVG 1.1//EN" "http://www.w3.org/Graphics/SVG/1.1/DTD/svg11.dtd">
<svg width="100%" height="100%" viewBox="0 0 456 142" version="1.1" xmlns="http://www.w3.org/2000/svg" xmlns:xlink="http://www.w3.org/1999/xlink" xml:space="preserve" style="fill-rule:evenodd;clip-rule:evenodd;stroke-linejoin:round;stroke-miterlimit:2;">
    <g transform="matrix(1,0,0,1,-1.46976,-3.36331)">
        <g transform="matrix(1,0,0,1,31.4646,-494.646)">
            <g>
                <g transform="matrix(0.265,0,0,0.265,-99.7795,464.882)">
                    <path d="M436.535,125.008L263.339,549.921L379.843,549.921L552.756,125.008L436.535,125.008Z" style="fill:rgb(255,183,27);fill-rule:nonzero;"/>
                </g>
                <g transform="matrix(0.265,0,0,0.265,-99.7795,464.882)">
                    <path d="M521.575,281.48L632.126,549.921L756.85,549.921L581.102,138.614L521.575,281.48Z" style="fill-rule:nonzero;"/>
                </g>
                <path d="M155.906,530.079C150.378,530.079 145.417,531.196 141.024,533.424C136.602,535.652 133.03,538.894 130.28,543.146L130.28,532.006L106.866,532.006L106.866,610.243L130.932,610.243L130.932,566.306C130.932,561.005 132.446,556.753 135.468,553.55C138.501,550.375 142.498,548.759 147.487,548.759C151.625,548.759 154.687,549.981 156.643,552.416C158.607,554.862 159.591,558.737 159.591,564.038L159.591,609.959L183.657,609.959L183.657,562.904C183.657,551.849 181.369,543.6 176.797,538.129C172.233,532.658 165.26,529.937 155.906,529.937L155.906,530.079Z" style="fill-rule:nonzero;"/>
                <path d="M241.228,564.094L228.019,561.061C224.844,560.214 222.605,559.315 221.329,558.354C220.062,557.393 219.424,556.067 219.424,554.386C219.424,552.053 220.482,550.247 222.599,548.972C224.717,547.696 227.645,547.058 231.358,547.058C239.437,547.058 247.601,549.921 255.906,555.647L262.284,539.717C258.032,536.627 253.242,534.246 247.941,532.545C242.64,530.85 237.169,529.994 231.528,529.994C224.923,529.994 219.084,531.06 213.925,533.169C208.766,535.292 204.797,538.214 201.991,541.928C199.171,545.641 197.768,549.95 197.768,554.825C197.768,560.976 199.553,565.852 203.097,569.395C206.64,572.967 212.196,575.575 219.764,577.276L232.52,580.139C236.46,580.986 239.125,581.947 240.571,583.002C242.002,584.067 242.722,585.553 242.722,587.452C242.722,589.581 241.688,591.25 239.604,592.469C237.535,593.691 234.643,594.3 230.93,594.3C225.714,594.3 220.584,593.507 215.481,591.917C210.379,590.318 205.702,588.09 201.45,585.227L195.072,601.781C199.409,604.871 204.596,607.224 210.606,608.868C216.615,610.509 223.22,611.334 230.448,611.334C240.965,611.334 249.214,609.182 255.223,604.871C261.232,600.562 264.237,594.638 264.237,587.098C264.237,580.833 262.406,575.872 258.738,572.216C255.053,568.531 249.242,565.809 241.277,563.995L241.228,564.094Z" style="fill-rule:nonzero;"/>
                <path d="M419.528,572.598C415.871,568.942 410.06,566.192 402.094,564.406L388.857,561.373C385.682,560.526 383.443,559.627 382.167,558.666C380.891,557.705 380.254,556.379 380.254,554.698C380.254,552.365 381.319,550.559 383.428,549.283C385.537,548.008 388.474,547.37 392.187,547.37C400.266,547.37 408.43,550.233 416.735,555.959L423.113,540.028C418.861,536.939 414.071,534.557 408.77,532.857C403.469,531.162 397.998,530.306 392.357,530.306C385.781,530.306 379.913,531.371 374.754,533.48C369.595,535.603 365.598,538.526 362.792,542.239C359.98,545.953 358.569,550.261 358.569,555.137C358.569,561.288 360.346,566.164 363.898,569.707C367.441,573.279 372.997,575.887 380.537,577.587L393.293,580.45C397.233,581.298 399.898,582.259 401.343,583.313C402.783,584.379 403.495,585.865 403.495,587.764C403.495,589.893 402.46,591.562 400.377,592.781C398.307,594.003 395.416,594.612 391.703,594.612C386.487,594.612 381.356,593.819 376.254,592.228C371.151,590.63 366.474,588.402 362.222,585.539L355.844,602.093C360.21,605.183 365.369,607.535 371.378,609.18C377.388,610.821 383.992,611.646 391.221,611.646C401.737,611.646 409.986,609.494 415.996,605.183C422.005,600.874 425.01,594.95 425.01,587.409C424.996,581.145 423.164,576.184 419.511,572.499L419.528,572.598Z" style="fill-rule:nonzero;"/>
                <g transform="matrix(0.265,0,0,0.265,-99.7795,464.882)">
                    <path d="M1462.68,657.638L1550.55,657.638L1714.96,255.118L1627.09,255.118L1556.22,428.031L1485.35,255.118L1397.48,255.118L1510.87,535.748L1462.68,657.638Z" style="fill-rule:nonzero;"/>
                </g>
            </g>
        </g>
    </g>
</svg>
